X:0998
T:Rothsay and Caithness Fencibles.
M:2/4
L:1/8
Q:1/4=80
N:rest added at start of third part
I: S:: S::
N:segno signs at each double bar
Z:Jack Campin * www.campin.me.uk * 2009
K:D
A|dedf|dBBG |efg(f/e/)|{d}c2 z  e    |cAce|aeef    |ecB>c |A2 z
e|cAGE|FAdf |BGEe     |{d}c2 z (d/c/)|BAGF|Eeeg    |f>dc>e|d2 z:|
z|dBBd|A>BGF|GBge     |{d}c2 z (d/c/)|BAGF|Eee z/g/|f>dBc |d3  :|
<end>
<start>
